svgs/japanese_dictionary_takoboto.svg

<svg xmlns="http://www.w3.org/2000/svg" viewBox="0 0 192 192"><path d="M84.218 165.793c-3.298-1.408-9.299-8.464-9.299-10.934 0-1.459-.864-1.255-3.935.932-10.291 7.328-24.146.382-24.146-12.106v-4.315h-6.142c-5.315 0-6.718-.574-10.405-4.262-3.72-3.72-4.262-5.066-4.262-10.581 0-3.476.564-6.668 1.253-7.094 2.207-1.364 1.357-2.788-2.655-4.449-7.341-3.041-10.906-13.849-6.931-21.012 2.265-4.082 8.284-7.742 12.748-7.751 3.685-.008 3.831-.239 5.355-8.47C41.157 46.822 66.57 25.4 95.603 25.339c21.835-.045 44.697 13.841 53.994 32.797l3.355 6.841 4.65-1.241c3.784-1.01 5.564-.795 9.56 1.156 11.375 5.553 11.875 20.514.89 26.661-1.982 1.11-1.869 1.529 1.259 4.657 1.891 1.891 3.775 4.781 4.187 6.422 2.06 8.207-4.035 17.42-12.41 18.759-3.832.613-4.641 1.187-3.937 2.794 3.425 7.817.974 16.648-5.719 20.601-4.027 2.379-10.301 2.743-13.916.808-2.158-1.154-2.425-.865-2.425 2.627 0 7.907-7.069 14.968-14.985 14.968-4.952 0-10.834-2.979-12.675-6.419-1.374-2.568-1.466-2.538-3.738 1.198-4.144 6.815-13.26 10.478-19.475 7.825Zm13.037-8.676c1.144-1.439 1.412-4.046.871-8.488l-.781-6.41 3.987-.798c2.192-.438 5.597-.797 7.566-.797 3.493 0 3.562.131 2.848 5.342-.572 4.176-.199 6.001 1.709 8.358 5.1 6.298 15.428 2.253 15.328-6.004-.044-3.69-1.693-6.22-5.976-9.168l-2.883-1.985 6.185-4.539c3.401-2.497 6.469-4.54 6.817-4.54.348 0 1 1.958 1.449 4.352 2.07 11.032 18.218 10.779 18.532-.291.145-5.103-2.931-8.591-8.496-9.635-2.368-.444-4.306-1.275-4.306-1.846 0-1.693 6.403-12.637 7.393-12.637.501 0 2.162 1.692 3.691 3.76 2.068 2.797 3.795 3.761 6.737 3.761 8.313 0 12.771-9.523 7.109-15.185-2.271-2.271-3.55-2.531-8.928-1.817l-6.278.832.9-7.271c.496-4 1.08-7.458 1.299-7.687.219-.228 1.538.195 2.931.94 10.226 5.473 20.096-5.178 12.155-13.118-3.73-3.73-8.037-3.929-12.308-.569-4.253 3.345-5.474 3.164-6.335-.941-1.005-4.793-9.428-18.743-14.276-23.645-5.407-5.467-18.243-12.383-26.545-14.302-31.72-7.331-64.01 16.595-66.436 49.228-.841 11.313-.151 10.651-9.233 8.859-5.595-1.104-9.713 2.43-9.713 8.337 0 8.645 8.864 11.745 16.122 5.638l3.778-3.179 2.586 5.846c3.719 8.408 3.486 9.131-2.871 8.885-6.878-.266-9.586 1.9-9.586 7.666 0 5.638 3.029 9.039 8.029 9.014 5.149-.025 6.549-1.069 8.862-6.606 1.071-2.561 2.338-4.657 2.817-4.657 1.496 0 10.378 9.207 10.378 10.758 0 .811-1.656 2.16-3.68 2.998-7.196 2.981-7.198 14.698-.002 16.982 6.218 1.974 13.853-5.56 11.893-11.736-.436-1.372-.31-2.792.278-3.156.835-.515 11.536 2.441 13.932 3.849.265.157-.472 1.742-1.639 3.523-3.124 4.768-2.204 12.018 1.782 14.045 3.762 1.913 10.017.914 12.308-1.966Zm3.989-34.885c-17.145-3.019-25.072-12.542-25.072-30.117 0-10.88 1.146-11.474 8.315-4.311 7.354 7.349 19.104 9.446 31.886 5.69 8.139-2.392 14.957-7.223 14.957-10.599 0-1.566.857-2.443 2.384-2.443 1.978 0 2.531 1.266 3.248 7.437 1.76 15.17-6.124 29.532-17.857 32.529-6.629 1.694-14.188 2.461-17.861 1.814Zm14.753-6.113c8.233-3.44 14.519-10.787 16.403-19.174l1.167-5.193-3.626 2.142c-2.54 1.5-3.625 3.131-3.625 5.446 0 8.959-10.619 16.247-19.994 13.722-5.403-1.455-8.235-4.18-10.199-9.814-.803-2.301-2.269-3.999-3.463-4.008-1.139-.008-4.469-1.385-7.399-3.061-4.153-2.374-5.328-2.638-5.328-1.198 0 6.103 8.135 16.369 16.544 20.879 5.068 2.718 13.372 2.828 19.52.259Z"/></svg>

<svg
    xmlns="http://www.w3.org/2000/svg"
    viewBox="0 0 192 192"
    id="vector">
    <path
        id="path"
        d="M 84.218 165.793 C 80.92 164.385 74.919 157.329 74.919 154.859 C 74.919 153.4 74.055 153.604 70.984 155.791 C 60.693 163.119 46.838 156.173 46.838 143.685 L 46.838 139.37 L 40.696 139.37 C 35.381 139.37 33.978 138.796 30.291 135.108 C 26.571 131.388 26.029 130.042 26.029 124.527 C 26.029 121.051 26.593 117.859 27.282 117.433 C 29.489 116.069 28.639 114.645 24.627 112.984 C 17.286 109.943 13.721 99.135 17.696 91.972 C 19.961 87.89 25.98 84.23 30.444 84.221 C 34.129 84.213 34.275 83.982 35.799 75.751 C 41.157 46.822 66.57 25.4 95.603 25.339 C 117.438 25.294 140.3 39.18 149.597 58.136 L 152.952 64.977 L 157.602 63.736 C 161.386 62.726 163.166 62.941 167.162 64.892 C 178.537 70.445 179.037 85.406 168.052 91.553 C 166.07 92.663 166.183 93.082 169.311 96.21 C 171.202 98.101 173.086 100.991 173.498 102.632 C 175.558 110.839 169.463 120.052 161.088 121.391 C 157.256 122.004 156.447 122.578 157.151 124.185 C 160.576 132.002 158.125 140.833 151.432 144.786 C 147.405 147.165 141.131 147.529 137.516 145.594 C 135.358 144.44 135.091 144.729 135.091 148.221 C 135.091 156.128 128.022 163.189 120.106 163.189 C 115.154 163.189 109.272 160.21 107.431 156.77 C 106.057 154.202 105.965 154.232 103.693 157.968 C 99.549 164.783 90.433 168.446 84.218 165.793 Z M 97.255 157.117 C 98.399 155.678 98.667 153.071 98.126 148.629 L 97.345 142.219 L 101.332 141.421 C 103.524 140.983 106.929 140.624 108.898 140.624 C 112.391 140.624 112.46 140.755 111.746 145.966 C 111.174 150.142 111.547 151.967 113.455 154.324 C 118.555 160.622 128.883 156.577 128.783 148.32 C 128.739 144.63 127.09 142.1 122.807 139.152 L 119.924 137.167 L 126.109 132.628 C 129.51 130.131 132.578 128.088 132.926 128.088 C 133.274 128.088 133.926 130.046 134.375 132.44 C 136.445 143.472 152.593 143.219 152.907 132.149 C 153.052 127.046 149.976 123.558 144.411 122.514 C 142.043 122.07 140.105 121.239 140.105 120.668 C 140.105 118.975 146.508 108.031 147.498 108.031 C 147.999 108.031 149.66 109.723 151.189 111.791 C 153.257 114.588 154.984 115.552 157.926 115.552 C 166.239 115.552 170.697 106.029 165.035 100.367 C 162.764 98.096 161.485 97.836 156.107 98.55 L 149.829 99.382 L 150.729 92.111 C 151.225 88.111 151.809 84.653 152.028 84.424 C 152.247 84.196 153.566 84.619 154.959 85.364 C 165.185 90.837 175.055 80.186 167.114 72.246 C 163.384 68.516 159.077 68.317 154.806 71.677 C 150.553 75.022 149.332 74.841 148.471 70.736 C 147.466 65.943 139.043 51.993 134.195 47.091 C 128.788 41.624 115.952 34.708 107.65 32.789 C 75.93 25.458 43.64 49.384 41.214 82.017 C 40.373 93.33 41.063 92.668 31.981 90.876 C 26.386 89.772 22.268 93.306 22.268 99.213 C 22.268 107.858 31.132 110.958 38.39 104.851 L 42.168 101.672 L 44.754 107.518 C 48.473 115.926 48.24 116.649 41.883 116.403 C 35.005 116.137 32.297 118.303 32.297 124.069 C 32.297 129.707 35.326 133.108 40.326 133.083 C 45.475 133.058 46.875 132.014 49.188 126.477 C 50.259 123.916 51.526 121.82 52.005 121.82 C 53.501 121.82 62.383 131.027 62.383 132.578 C 62.383 133.389 60.727 134.738 58.703 135.576 C 51.507 138.557 51.505 150.274 58.701 152.558 C 64.919 154.532 72.554 146.998 70.594 140.822 C 70.158 139.45 70.284 138.03 70.872 137.666 C 71.707 137.151 82.408 140.107 84.804 141.515 C 85.069 141.672 84.332 143.257 83.165 145.038 C 80.041 149.806 80.961 157.056 84.947 159.083 C 88.709 160.996 94.964 159.997 97.255 157.117 Z M 101.244 122.232 C 84.099 119.213 76.172 109.69 76.172 92.115 C 76.172 81.235 77.318 80.641 84.487 87.804 C 91.841 95.153 103.591 97.25 116.373 93.494 C 124.512 91.102 131.33 86.271 131.33 82.895 C 131.33 81.329 132.187 80.452 133.714 80.452 C 135.692 80.452 136.245 81.718 136.962 87.889 C 138.722 103.059 130.838 117.421 119.105 120.418 C 112.476 122.112 104.917 122.879 101.244 122.232 Z M 115.997 116.119 C 124.23 112.679 130.516 105.332 132.4 96.945 L 133.567 91.752 L 129.941 93.894 C 127.401 95.394 126.316 97.025 126.316 99.34 C 126.316 108.299 115.697 115.587 106.322 113.062 C 100.919 111.607 98.087 108.882 96.123 103.248 C 95.32 100.947 93.854 99.249 92.66 99.24 C 91.521 99.232 88.191 97.855 85.261 96.179 C 81.108 93.805 79.933 93.541 79.933 94.981 C 79.933 101.084 88.068 111.35 96.477 115.86 C 101.545 118.578 109.849 118.688 115.997 116.119 Z"
        fill="#000000"
        stroke-width="12"/>
</svg>
